X: 3084
T: BALLOCHMYLE BRIG
C: A. Mc Alpine
Q:"Reel."
R: Reel.
%R:reel
B: James Kerr "Merry Melodies" v.3 p.11 #84
Z: 2016 John Chambers <jc:trillian.mit.edu>
M: C
L: 1/8
K: A
ue2 |\
dcBA EAcd | efec B2(ec) |\
dcBA EAcd | cdBG A2 :|\
(ed) |\
c2ea d2fb | gagf efed |
c2ea d2fb | gagf e2(dc) |\
dddb ccca | BcBA GFED |\
CEAc dfaf | edcB A2 |]

%%sep 1 1 500
%%sep 1 1 500

